app/img/transparency.svg

<svg width="70" height="70" viewBox="0 0 70 70" fill="none" xmlns="http://www.w3.org/2000/svg">
<g clip-path="url(#clip0)">
<path d="M60.0256 29.7599C59.5343 29.4784 58.9078 29.6488 58.6264 30.1401C58.3449 30.632 58.5158 31.2579 59.0072 31.5394C64.6858 34.7896 67.8127 38.9809 67.8127 43.3405C67.8127 51.8138 55.8696 59.21 40.0316 60.5446C39.4676 60.5921 39.0489 61.0883 39.0959 61.6522C39.1413 62.1874 39.5894 62.5917 40.1165 62.5917C40.1453 62.5917 40.1747 62.5906 40.2041 62.5879C48.287 61.907 55.7163 59.6607 61.1242 56.2636C66.7596 52.7233 69.8635 48.1342 69.8635 43.3405C69.8635 38.214 66.3697 33.3909 60.0256 29.7599Z" fill="#6FA8B3"/>
<path d="M35.7205 62.3471C35.7264 62.338 35.7317 62.3289 35.7371 62.3198C35.7509 62.2974 35.7638 62.2745 35.7761 62.251C35.7814 62.2408 35.7857 62.2307 35.7905 62.2205C35.8017 62.197 35.8118 62.173 35.8209 62.1489C35.8252 62.1383 35.8289 62.1281 35.8327 62.1174C35.8412 62.0923 35.8487 62.0672 35.8551 62.0411C35.8578 62.0309 35.861 62.0202 35.8636 62.0096C35.8695 61.9823 35.8738 61.9551 35.8775 61.9273C35.8791 61.9177 35.8813 61.9081 35.8823 61.8985C35.8861 61.8616 35.8887 61.8237 35.8887 61.7858C35.8887 61.7473 35.8861 61.71 35.8823 61.6726C35.8813 61.663 35.8791 61.6539 35.8775 61.6443C35.8738 61.616 35.8695 61.5887 35.8636 61.5615C35.861 61.5508 35.8578 61.5407 35.8551 61.53C35.8487 61.5043 35.8412 61.4787 35.8327 61.4536C35.8289 61.4429 35.8252 61.4328 35.8209 61.4221C35.8118 61.3975 35.8017 61.374 35.7905 61.3505C35.7857 61.3404 35.7809 61.3302 35.7761 61.3201C35.7638 61.2961 35.7509 61.2736 35.7371 61.2507C35.7317 61.2421 35.7264 61.233 35.7205 61.224C35.7034 61.1973 35.6842 61.1716 35.6644 61.1465C35.6618 61.1428 35.6591 61.139 35.6559 61.1353C35.6329 61.107 35.6084 61.0803 35.5822 61.0552C35.5747 61.0477 35.5667 61.0413 35.5592 61.0338C35.5395 61.0157 35.5197 60.9986 35.4989 60.982C35.4951 60.9788 35.4919 60.9751 35.4882 60.9724L30.1022 56.8345C29.6536 56.4895 29.0095 56.5744 28.6645 57.0231C28.3195 57.4722 28.4039 58.1157 28.8531 58.4607L31.7439 60.6819C24.0182 60.2968 16.8602 58.4853 11.329 55.4823C5.25727 52.1861 1.91407 47.8741 1.91407 43.3405C1.91407 38.9809 5.04098 34.7897 10.7196 31.5394C11.211 31.2579 11.3813 30.632 11.1004 30.1401C10.819 29.6488 10.1925 29.4784 9.70117 29.7599C3.35709 33.391 -0.136719 38.214 -0.136719 43.3405C-0.136719 48.6608 3.58781 53.6131 10.3506 57.2842C16.2167 60.4688 23.7928 62.3738 31.934 62.7434L28.8531 65.1103C28.4039 65.4553 28.3195 66.0988 28.6645 66.548C28.8664 66.8107 29.1708 66.9485 29.4784 66.9485C29.6963 66.9485 29.9164 66.8796 30.1022 66.7365L35.4882 62.5986C35.4919 62.5954 35.4951 62.5922 35.4989 62.589C35.5197 62.5725 35.5395 62.5554 35.5592 62.5372C35.5667 62.5303 35.5747 62.5233 35.5822 62.5164C35.6084 62.4907 35.6329 62.464 35.6559 62.4357C35.6591 62.432 35.6618 62.4283 35.6644 62.4245C35.6842 62.3994 35.7029 62.3738 35.7205 62.3471Z" fill="#6FA8B3"/>
<path d="M14.2411 38.6434L34.3981 48.9123C34.4087 48.9182 34.42 48.9219 34.4306 48.9267C34.4467 48.9342 34.4627 48.9411 34.4787 48.9481C34.5043 48.9582 34.5305 48.9673 34.5567 48.9759C34.5727 48.9807 34.5882 48.986 34.6042 48.9897C34.6331 48.9972 34.6624 49.0031 34.6918 49.0079C34.7057 49.0106 34.719 49.0138 34.7329 49.0154C34.7762 49.0207 34.8194 49.0245 34.8632 49.0245C34.9065 49.0245 34.9497 49.0207 34.9935 49.0154C35.0069 49.0138 35.0208 49.0106 35.0347 49.0079C35.064 49.0031 35.0929 48.9978 35.1222 48.9897C35.1383 48.986 35.1538 48.9807 35.1698 48.9759C35.1959 48.9673 35.2221 48.9582 35.2478 48.9481C35.2638 48.9411 35.2798 48.9342 35.2958 48.9267C35.307 48.9219 35.3177 48.9182 35.3289 48.9123L55.4854 38.6434C55.8288 38.4683 56.0451 38.1152 56.0451 37.7297V33.6105C56.0451 33.0444 55.5863 32.5851 55.0197 32.5851C54.4536 32.5851 53.9943 33.0444 53.9943 33.6105V37.1016L35.8886 46.3259V25.473L53.9943 16.2487V29.5094C53.9943 30.0755 54.4536 30.5348 55.0197 30.5348C55.5863 30.5348 56.0451 30.0755 56.0451 29.5094V14.5755C56.0451 14.5291 56.0419 14.4831 56.0355 14.4377C56.0333 14.4223 56.0296 14.4078 56.0269 14.3924C56.0216 14.363 56.0162 14.3336 56.0082 14.3048C56.0034 14.2871 55.9965 14.2701 55.9906 14.253C55.9826 14.2273 55.974 14.2017 55.9634 14.1771C55.9559 14.1595 55.9473 14.1424 55.9388 14.1253C55.9276 14.1018 55.9158 14.0789 55.903 14.057C55.8929 14.0399 55.8816 14.0239 55.871 14.0073C55.8571 13.9865 55.8427 13.9656 55.8272 13.9459C55.8149 13.9299 55.8015 13.9149 55.7887 13.9C55.7722 13.8807 55.7551 13.8626 55.7374 13.8449C55.7225 13.8305 55.7075 13.8172 55.6921 13.8038C55.6734 13.7873 55.6536 13.7718 55.6338 13.7568C55.6173 13.744 55.6002 13.7323 55.5826 13.7205C55.5735 13.7141 55.5649 13.7072 55.5553 13.7013C55.5431 13.6938 55.5297 13.6879 55.5169 13.681C55.5062 13.6751 55.4966 13.6676 55.4854 13.6618L35.3284 3.39288C35.0363 3.24388 34.6902 3.24388 34.3975 3.39288L31.4981 4.87009C30.9934 5.1275 30.7926 5.74487 31.0495 6.24903C31.3069 6.75371 31.9238 6.95452 32.4285 6.69764L34.8632 5.45702L52.7611 14.5755L51.6402 15.147L34.8632 23.6941L18.0863 15.147L16.9653 14.5755L28.7621 8.56524C29.2668 8.30836 29.4676 7.69098 29.2108 7.1863C28.9533 6.68161 28.336 6.48081 27.8318 6.73822L14.2411 13.6618C14.2304 13.6676 14.2203 13.6751 14.2096 13.681C14.1968 13.6879 14.1834 13.6938 14.1711 13.7013C14.1615 13.7072 14.1535 13.7141 14.1439 13.7205C14.1263 13.7317 14.1097 13.744 14.0926 13.7568C14.0729 13.7718 14.0531 13.7873 14.0344 13.8038C14.0189 13.8172 14.004 13.8305 13.9895 13.8449C13.9714 13.8626 13.9548 13.8807 13.9383 13.9C13.9249 13.9149 13.9116 13.9299 13.8993 13.9459C13.8838 13.9656 13.8694 13.9865 13.8555 14.0073C13.8448 14.0239 13.8336 14.0399 13.8235 14.057C13.8106 14.0789 13.7994 14.1024 13.7877 14.1253C13.7791 14.1424 13.7706 14.1595 13.7631 14.1766C13.7524 14.2017 13.7444 14.2273 13.7359 14.253C13.73 14.2701 13.7236 14.2866 13.7188 14.3042C13.7108 14.3336 13.7054 14.363 13.7001 14.3929C13.6974 14.4078 13.6931 14.4223 13.691 14.4377C13.6851 14.4831 13.6814 14.5291 13.6814 14.5755V22.4064C13.6814 22.9731 14.1407 23.4318 14.7068 23.4318C15.2729 23.4318 15.7322 22.9731 15.7322 22.4064V16.2487L33.8378 25.473V46.3259L15.7322 37.1016V26.508C15.7322 25.9414 15.2729 25.4826 14.7068 25.4826C14.1407 25.4826 13.6814 25.9414 13.6814 26.508V37.7297C13.6814 38.1152 13.8977 38.4683 14.2411 38.6434Z" fill="#6FA8B3"/>
</g>
<defs>
<clipPath id="clip0">
<rect width="70" height="70" fill="white"/>
</clipPath>
</defs>
</svg>

<svg width="70" height="70" fill="none" xmlns="http://www.w3.org/2000/svg"><g clip-path="url(#clip0)" fill="#6FA8B3"><path d="M60.026 29.76a1.025 1.025 0 10-1.019 1.78c5.679 3.25 8.806 7.44 8.806 11.8 0 8.474-11.943 15.87-27.781 17.205a1.026 1.026 0 00.172 2.043c8.083-.681 15.512-2.927 20.92-6.324 5.636-3.54 8.74-8.13 8.74-12.924 0-5.126-3.494-9.95-9.838-13.58zM35.72 62.347l.017-.027.04-.069.014-.03a.93.93 0 00.064-.18l.009-.031c.006-.028.01-.055.014-.083l.004-.029a1.104 1.104 0 000-.225c0-.01-.003-.02-.005-.029a1 1 0 00-.013-.082l-.009-.032a.968.968 0 00-.064-.18l-.015-.03a1.144 1.144 0 00-.039-.07l-.017-.026a.977.977 0 00-.138-.169l-.023-.021a1.136 1.136 0 00-.06-.052l-.01-.01-5.387-4.138a1.026 1.026 0 00-1.249 1.627l2.89 2.22c-7.725-.384-14.883-2.196-20.414-5.199-6.072-3.296-9.415-7.608-9.415-12.142 0-4.36 3.127-8.55 8.806-11.8a1.026 1.026 0 00-1.02-1.78C3.357 33.39-.137 38.214-.137 43.34c0 5.32 3.725 10.273 10.488 13.944 5.866 3.185 13.442 5.09 21.583 5.46l-3.08 2.366a1.025 1.025 0 101.248 1.627l5.386-4.138.01-.01a1.04 1.04 0 00.061-.052l.023-.02a.968.968 0 00.139-.17z"/><path d="M14.241 38.643l20.157 10.27.033.014.048.021c.025.01.052.02.078.028l.047.014a.972.972 0 00.088.018c.014.003.027.006.04.007a1.07 1.07 0 00.261 0c.014-.001.028-.004.042-.007a.825.825 0 00.087-.018l.048-.014.078-.028.048-.021.033-.015 20.156-10.269c.344-.175.56-.528.56-.913v-4.12a1.025 1.025 0 10-2.05 0v3.492l-18.106 9.224V25.473l18.105-9.224v13.26a1.026 1.026 0 002.051 0V14.575a.987.987 0 00-.01-.137l-.008-.046a.968.968 0 00-.019-.087l-.017-.052a.77.77 0 00-.028-.076c-.007-.018-.016-.035-.024-.052a.918.918 0 00-.036-.068l-.032-.05a.977.977 0 00-.044-.061l-.038-.046a.96.96 0 00-.206-.18l-.028-.019-.038-.02-.032-.02L35.328 3.394a1.025 1.025 0 00-.93 0l-2.9 1.477a1.026 1.026 0 00.93 1.828l2.435-1.241 17.898 9.119-1.12.571-16.778 8.547-16.777-8.547-1.12-.572 11.796-6.01a1.025 1.025 0 10-.93-1.827l-13.59 6.924-.032.019-.039.02c-.01.006-.018.013-.027.02a.826.826 0 00-.11.083.874.874 0 00-.135.142.977.977 0 00-.043.061l-.033.05-.035.068a1.088 1.088 0 00-.025.052.977.977 0 00-.027.076l-.017.051a.998.998 0 00-.019.089l-.009.045a1.07 1.07 0 00-.01.137v7.831a1.025 1.025 0 102.051 0V16.25l18.106 9.224v20.853l-18.106-9.224V26.508a1.025 1.025 0 10-2.05 0V37.73c0 .385.216.738.56.913z"/></g><defs><clipPath id="clip0"><path fill="#fff" d="M0 0h70v70H0z"/></clipPath></defs></svg>
